**kern	**kern	**dynam
*part1	*part1	*part1
*staff2	*staff1	*
*I"Piano	*	*
*clefF4	*clefG2	*
*k[b-e-a-]	*k[b-e-a-]	*
=1	=1	=1
4BB-X	16A-LL<	.
.	16d	.
.	16f	.
.	16dJJ	.
4BB-	16A-LL<	.
.	16d	.
.	16f	.
.	16dJJ	.
=	=	=
2BBB- 2BB-	16A-LL<	.
.	16d	.
.	16f	.
.	16dJJ	.
.	16A-LL<	.
.	16d	.
.	16f	.
.	16dJJ	.
=	=	=
2EE- 2E-	16GLL<	.
.	16B-<	.
.	16e-	.
.	16B-JJ<	.
.	16GLL<	mp
.	16B-<	.
.	16e-	.
.	16B-JJ<	.
=	=	=
2BBBn 2BBn	16GLL<	.
.	16d	.
.	16f	.
.	16dJJ	.
.	16GLL<	.
.	16d	.
.	16f	.
.	16dJJ	.
=	=	=
2BBBn 2BBn	16GLL<	.
.	16d	.
.	16f	.
.	16dJJ	.
.	16GLL<	.
.	16d	.
.	16f	.
.	16dJJ	.
=	=	=
2GGG 2GG	16GLL<	.
.	16d	.
.	16f	.
.	16dJJ	.
.	16GLL<	.
.	16d	.
.	16f	.
.	16dJJ	.
=	=	=
2CC 2C	16GLL<	.
.	16c	.
.	16e-	.
.	16cJJ	.
.	16GLL<	.
.	16c	.
.	16e-	.
.	16cJJ	.
=	=	=
*-	*-	*-
!!!system-decoration: {(s1,s2)}
!!!RDF**kern: < = below
